packages/kaspersky-hexa-ui-icons/src/iconsSVGs/48/ScanRadar03.svg

<svg xmlns="http://www.w3.org/2000/svg" width="48" height="48" fill="none" viewBox="0 0 48 48"><path fill="currentColor" fill-rule="evenodd" d="M6 40h2v2H6zm21.86-7.87a8.3 8.3 0 0 1-.82.34 1.0001 1.0001 0 0 0 .34 1.95 1.06 1.06 0 0 0 .34-.06c.34-.13.67-.26 1-.42a1 1 0 0 0 .4632-1.3221A1 1 0 0 0 27.87 32.13zM30 24q.015-.285 0-.57c-.0525-.5523-.5427-.9575-1.095-.905s-.9575.5427-.905 1.095v.78a.9997.9997 0 0 0 .9 1.1h.1a1 1 0 0 0 1-.9zm.67 6c-.2.22-.41.43-.62.63-.4077.3705-.439 1.001-.07 1.41a1 1 0 0 0 .74.33 1 1 0 0 0 .67-.26 9.2 9.2 0 0 0 .76-.77A1 1 0 0 0 30.67 30m1.81-9.06a1 1 0 0 0 1.28.61 1 1 0 0 0 .61-1.28c-.13-.34-.26-.67-.41-1-.2375-.5026-.8374-.7175-1.34-.48s-.7175.8374-.48 1.34c.1319.2824.2454.573.34.87zm-5.31 7.88a1 1 0 0 0 .64-.22 6.5 6.5 0 0 0 .83-.83c.3507-.428.288-1.0593-.14-1.41s-1.0593-.288-1.41.14a3.58 3.58 0 0 1-.55.55 1 1 0 0 0 .63 1.77M8 6H6v2h2zm32 2h2V6h-2zm6-1v34c0 2.7614-2.2386 5-5 5H7c-2.7614 0-5-2.2386-5-5V7c0-2.7614 2.2386-5 5-5h34c2.7614 0 5 2.2386 5 5m-2 0c0-1.6569-1.3431-3-3-3H7C5.3431 4 4 5.3431 4 7v34c0 1.6569 1.3431 3 3 3h34c1.6569 0 3-1.3431 3-3zm-4 35h2v-2h-2zm-6.25-15.57a1 1 0 0 0-1.28.61 7.2 7.2 0 0 1-.33.81c-.236.4971-.0259 1.0915.47 1.33a1 1 0 0 0 .43.1 1 1 0 0 0 .9-.57 9.6 9.6 0 0 0 .42-1 1 1 0 0 0-.61-1.28M40 24c.0082 7.629-5.371 14.2027-12.8507 15.7043-7.4798 1.5016-14.9793-2.4866-17.9162-9.5276-2.9369-7.0411-.494-15.1763 5.8358-19.4348S29.8547 7.2863 35.27 12.66A15.93 15.93 0 0 1 40 24m-2 0a13.91 13.91 0 0 0-3.43-9.15l-2.2 2.19a1 1 0 0 1-.28 1 .89.89 0 0 1-.92.2l-2.34 2.34a1 1 0 0 1-1 1.26 1.05 1.05 0 0 1-.24-.06l-2.92 2.93a1 1 0 0 1-1.42 0 1 1 0 0 1 0-1.42l2.73-2.73a4.06 4.06 0 0 0-2-.56c-2.2091 0-4 1.7909-4 4s1.7909 4 4 4h.4a.9997.9997 0 0 1 1.1.9c.0522.5494-.3506 1.0373-.9 1.09h-.6c-2.5926.0029-4.8939-1.6597-5.7053-4.1221-.8115-2.4624.0505-5.1674 2.1369-6.7064 2.0865-1.539 4.9254-1.5638 7.0384-.0615l2.14-2.14a8.94 8.94 0 0 0-4-1.82 2 2 0 0 1-3.26 0c-3.3261.6206-6.0232 3.0542-6.9811 6.2993S15.334 28.1926 17.79 30.52a1.92 1.92 0 0 1 .79-.16c1.1046 0 2 .8954 2 2a9 9 0 0 0 3.38.66h.45c.5523 0 1 .4477 1 1s-.4477 1-1 1H24a10.9 10.9 0 0 1-4.36-.91 2 2 0 0 1-1 .29c-1.1046 0-2-.8954-2-2a1.5 1.5 0 0 1 0-.22c-3.1234-2.8272-4.3577-7.1899-3.1784-11.2344s4.565-7.0602 8.7184-7.7656a2 2 0 0 1 3.62 0 10.94 10.94 0 0 1 5.23 2.39l2.11-2.12c-4.9895-4.3002-12.3018-4.5408-17.5631-.5778s-7.0484 11.0577-4.2925 17.0403c2.756 5.9826 9.3096 9.2349 15.7409 7.8116C33.4565 36.3008 38.0258 30.5868 38 24m-3-.53c0-.5523-.4477-1-1-1a1 1 0 0 0-1 1.05v.88c0 .5523.4477 1 1 1s1-.4477 1-1z" clip-rule="evenodd"/></svg>

<svg width="48" height="48" viewBox="0 0 48 48" fill="none" xmlns="http://www.w3.org/2000/svg">
<path fill-rule="evenodd" clip-rule="evenodd" d="M6 40H8V42H6V40ZM27.86 32.13C27.5929 32.2578 27.3192 32.3713 27.04 32.47C26.5676 32.6246 26.2805 33.1026 26.3658 33.5922C26.4512 34.0818 26.8832 34.4344 27.38 34.42C27.4959 34.4187 27.6107 34.3984 27.72 34.36C28.06 34.23 28.39 34.1 28.72 33.94C29.2089 33.6992 29.4149 33.1112 29.1832 32.6179C28.9516 32.1246 28.3676 31.9076 27.87 32.13H27.86ZM30 24C30.01 23.8101 30.01 23.6199 30 23.43C29.9475 22.8777 29.4573 22.4725 28.905 22.525C28.3527 22.5775 27.9475 23.0677 28 23.62C28 23.74 28 23.87 28 24.01C28 24.15 28 24.27 28 24.4C27.9721 24.6655 28.0515 24.9311 28.2206 25.1377C28.3896 25.3443 28.6342 25.4748 28.9 25.5H29C29.5155 25.5026 29.9485 25.1129 30 24.6C30 24.4 30 24.2 30 24ZM30.67 30C30.47 30.22 30.26 30.43 30.05 30.63C29.6423 31.0005 29.611 31.631 29.98 32.04C30.1691 32.2495 30.4378 32.3693 30.72 32.37C30.9678 32.3694 31.2066 32.2767 31.39 32.11C31.6582 31.8685 31.912 31.6114 32.15 31.34C32.4814 30.9273 32.4338 30.3278 32.0415 29.9726C31.6491 29.6173 31.0478 29.6293 30.67 30ZM32.48 20.94C32.5683 21.1911 32.753 21.3966 32.9932 21.5111C33.2334 21.6256 33.5094 21.6396 33.76 21.55C34.0111 21.4617 34.2166 21.277 34.3311 21.0368C34.4456 20.7966 34.4596 20.5206 34.37 20.27C34.24 19.93 34.11 19.6 33.96 19.27C33.7225 18.7674 33.1226 18.5525 32.62 18.79C32.1174 19.0275 31.9025 19.6274 32.14 20.13C32.2719 20.4124 32.3854 20.703 32.48 21V20.94ZM27.17 28.82C27.4024 28.8233 27.6287 28.7455 27.81 28.6C28.1111 28.3489 28.3889 28.0711 28.64 27.77C28.9907 27.342 28.928 26.7107 28.5 26.36C28.072 26.0093 27.4407 26.072 27.09 26.5C26.9272 26.7028 26.7428 26.8872 26.54 27.05C26.2165 27.318 26.095 27.7596 26.2359 28.1554C26.3768 28.5511 26.7499 28.8166 27.17 28.82ZM8 6H6V8H8V6ZM40 8H42V6H40V8ZM46 7V41C46 43.7614 43.7614 46 41 46H7C4.23858 46 2 43.7614 2 41V7C2 4.23858 4.23858 2 7 2H41C43.7614 2 46 4.23858 46 7ZM44 7C44 5.34315 42.6569 4 41 4H7C5.34315 4 4 5.34315 4 7V41C4 42.6569 5.34315 44 7 44H41C42.6569 44 44 42.6569 44 41V7ZM40 42H42V40H40V42ZM33.75 26.43C33.4994 26.3404 33.2234 26.3544 32.9832 26.4689C32.743 26.5834 32.5583 26.7889 32.47 27.04C32.3765 27.3164 32.2663 27.5869 32.14 27.85C31.904 28.3471 32.1141 28.9415 32.61 29.18C32.7441 29.245 32.891 29.2791 33.04 29.28C33.4247 29.2789 33.7746 29.0573 33.94 28.71C34.0987 28.3848 34.2389 28.051 34.36 27.71C34.4496 27.4594 34.4356 27.1834 34.3211 26.9432C34.2066 26.703 34.0011 26.5183 33.75 26.43ZM40 24C40.0082 31.629 34.629 38.2027 27.1493 39.7043C19.6695 41.2059 12.17 37.2177 9.23309 30.1767C6.29621 23.1356 8.73901 15.0004 15.0689 10.7419C21.3987 6.48343 29.8547 7.28632 35.27 12.66C38.2997 15.6554 40.0032 19.7396 40 24ZM38 24C38.0009 20.6356 36.7823 17.3848 34.57 14.85L32.37 17.04C32.4706 17.3995 32.3627 17.7851 32.09 18.04C31.8466 18.2767 31.4897 18.3543 31.17 18.24L28.83 20.58C28.9127 20.8863 28.8451 21.2137 28.6478 21.4623C28.4506 21.7108 28.1471 21.851 27.83 21.84C27.7479 21.8295 27.6674 21.8094 27.59 21.78L24.67 24.71C24.4822 24.8993 24.2266 25.0058 23.96 25.0058C23.6934 25.0058 23.4378 24.8993 23.25 24.71C23.0607 24.5222 22.9542 24.2666 22.9542 24C22.9542 23.7334 23.0607 23.4778 23.25 23.29L25.98 20.56C25.3732 20.2031 24.6839 20.0101 23.98 20C21.7709 20 19.98 21.7909 19.98 24C19.98 26.2091 21.7709 28 23.98 28H24.38C24.6455 27.9721 24.9111 28.0515 25.1177 28.2206C25.3243 28.3896 25.4548 28.6342 25.48 28.9C25.5322 29.4494 25.1294 29.9373 24.58 29.99H23.98C21.3874 29.9929 19.0861 28.3303 18.2747 25.8679C17.4632 23.4055 18.3252 20.7005 20.4116 19.1615C22.4981 17.6225 25.337 17.5977 27.45 19.1L29.59 16.96C28.4289 16.03 27.054 15.4044 25.59 15.14C25.2148 15.6677 24.6074 15.9811 23.96 15.9811C23.3126 15.9811 22.7052 15.6677 22.33 15.14C19.0039 15.7606 16.3068 18.1942 15.3489 21.4393C14.391 24.6844 15.334 28.1926 17.79 30.52C18.039 30.4114 18.3083 30.3568 18.58 30.36C19.6846 30.36 20.58 31.2554 20.58 32.36C21.6537 32.7955 22.8014 33.0196 23.96 33.02H24.41C24.9623 33.02 25.41 33.4677 25.41 34.02C25.41 34.5723 24.9623 35.02 24.41 35.02H24C22.4995 35.02 21.0152 34.7102 19.64 34.11C19.3381 34.2933 18.9931 34.3933 18.64 34.4C17.5354 34.4 16.64 33.5046 16.64 32.4C16.6345 32.3268 16.6345 32.2532 16.64 32.18C13.5166 29.3528 12.2823 24.9901 13.4616 20.9456C14.6409 16.9011 18.0266 13.8854 22.18 13.18C22.5097 12.4786 23.215 12.0308 23.99 12.0308C24.765 12.0308 25.4703 12.4786 25.8 13.18C27.7253 13.4961 29.531 14.3212 31.03 15.57L33.14 13.45C28.1505 9.14976 20.8382 8.90921 15.5769 12.8722C10.3156 16.8353 8.52848 23.9299 11.2844 29.9125C14.0404 35.8951 20.594 39.1474 27.0253 37.7241C33.4565 36.3008 38.0258 30.5868 38 24ZM35 23.47C35 22.9177 34.5523 22.47 34 22.47C33.7259 22.4697 33.4637 22.5819 33.2746 22.7803C33.0856 22.9788 32.9863 23.2462 33 23.52C33 23.66 33 23.81 33 23.94C33 24.07 33 24.25 33 24.4C33 24.9523 33.4477 25.4 34 25.4C34.5523 25.4 35 24.9523 35 24.4C35 24.22 35 24.04 35 23.85C35 23.66 35 23.65 35 23.47Z"  fill="currentColor"/>
</svg>
